src/assets/images/banquetc.svg

<?xml version="1.0" encoding="UTF-8"?>
<svg id="Layer_1" xmlns="http://www.w3.org/2000/svg" viewBox="0 0 844.83 679.37">
  <defs>
    <style>
      .cls-1 {
        fill: #cbe5e8;
      }

      .cls-2 {
        fill: #eef5f6;
      }

      .cls-3 {
        fill: #deecf1;
      }

      .cls-4 {
        fill: #5a3483;
      }

      .cls-5 {
        fill: #e95428;
      }
    </style>
  </defs>
  <g>
    <g>
      <path class="cls-4" d="M332.8,240.99l-37.16,19.22-193.46-15.63c-9.67,0-17.52-7.84-17.52-17.52v-47.77h260.9l4.76,44.17c0,9.68-7.84,17.52-17.52,17.52Z"/>
      <path class="cls-5" d="M362.22,185.12l-40.35,4.32H75.19c-8.81,0-15.96-7.14-15.96-15.96v-31.92h320.84l-2.51,27.43c0,8.81-6.53,16.14-15.34,16.14h0Z"/>
      <path class="cls-4" d="M345.69,142.62v1.06H84.66v-1.06c0-49.83,40.4-90.23,90.23-90.23h89.52c.4,0,.79.01,1.19.01,25.73,0,80.09,40.78,80.09,90.21Z"/>
    </g>
    <g>
      <path class="cls-4" d="M738.32,240.99l-36.14,12.68-194.49-9.09c-9.67,0-17.52-7.84-17.52-17.52v-47.77h260.9l4.76,44.17c0,9.67-7.84,17.52-17.52,17.52h0Z"/>
      <path class="cls-5" d="M767.74,185.12l-40.35,4.32h-246.67c-8.81,0-15.96-7.14-15.96-15.96v-31.92h320.84l-2.51,27.43c0,8.81-6.53,16.14-15.34,16.14h0Z"/>
      <path class="cls-4" d="M751.21,142.62v1.06h-261.03v-1.06c0-49.83,40.4-90.23,90.23-90.23h89.52c.4,0,.79.01,1.19.01,25.73,0,80.09,40.78,80.09,90.21h0Z"/>
    </g>
    <path class="cls-3" d="M269.38,443.46l-33.88,12.85-21.01-9.87c-18.85,0-36.33-9.8-46.17-25.87l-8.93-14.58c-3.61-5.89.63-13.46,7.54-13.46h104.9l43.46,2.02c6.91,0,8.38,6.64,4.77,12.53l-10.08,13.22c-9.84,16.07-21.75,23.16-40.6,23.16h0Z"/>
    <path class="cls-1" d="M317.3,392.53h-49.51c6.91,0,11.15,7.57,7.54,13.46l-8.93,14.58c-9.84,16.07-27.33,25.87-46.17,25.87l26.62,4.6,22.88-4.6c18.85,0,36.33-9.8,46.17-25.87l8.93-14.58c3.6-5.89-.64-13.46-7.54-13.46Z"/>
    <path class="cls-2" d="M269.38,497.38l-41.15,8.71-13.74-5.73c-18.85,0-36.33-9.8-46.17-25.87l-8.93-14.58c-3.61-5.89.63-13.46,7.54-13.46h104.9l43.46,2.02c6.91,0,8.38,6.64,4.77,12.53l-10.08,13.22c-9.84,16.07-21.75,23.16-40.6,23.16h0Z"/>
    <path class="cls-3" d="M317.3,446.45h-49.51c6.91,0,11.15,7.57,7.54,13.46l-8.93,14.58c-9.84,16.07-27.33,25.87-46.17,25.87l26.26,4.19,23.25-4.19c18.85,0,36.33-9.8,46.17-25.87l8.93-14.58c3.61-5.89-.63-13.46-7.54-13.46Z"/>
    <path class="cls-3" d="M629.96,443.46l-33.88,12.85-21.01-9.87c-18.85,0-36.33-9.8-46.17-25.87l-8.93-14.58c-3.61-5.89.63-13.46,7.54-13.46h104.9l43.46,2.02c6.91,0,8.38,6.64,4.77,12.53l-10.08,13.22c-9.84,16.07-21.76,23.16-40.6,23.16h0Z"/>
    <path class="cls-1" d="M677.88,392.53h-49.51c6.91,0,11.15,7.57,7.54,13.46l-8.93,14.58c-9.84,16.07-27.33,25.87-46.17,25.87l26.62,4.6,22.88-4.6c18.85,0,36.33-9.8,46.17-25.87l8.93-14.58c3.6-5.89-.64-13.46-7.54-13.46Z"/>
    <path class="cls-2" d="M629.96,497.38l-36.41,12.98-18.48-10c-18.85,0-36.33-9.8-46.17-25.87l-8.93-14.58c-3.61-5.89.63-13.46,7.54-13.46h104.9l43.46,2.02c6.91,0,8.38,6.64,4.77,12.53l-10.08,13.22c-9.84,16.07-21.76,23.16-40.6,23.16h0Z"/>
    <path class="cls-3" d="M677.88,446.45h-49.51c6.91,0,11.15,7.57,7.54,13.46l-8.93,14.58c-9.84,16.07-27.33,25.87-46.17,25.87l26.37,11.27,23.14-11.27c18.85,0,36.33-9.8,46.17-25.87l8.93-14.58c3.61-5.89-.63-13.46-7.54-13.46Z"/>
    <path class="cls-4" d="M146.52,566.02l-72.18-19.15v-25.43l72.18-21.08h551.78l72.18,11.27v35.97l-72.18,18.42H146.52Z"/>
    <path class="cls-5" d="M101.97,666.99h-40.33c-3.64,0-6.6-2.96-6.6-6.6v-311.65l10.25-55.46h32.7l10.58,55.46v311.65c0,3.65-2.96,6.6-6.6,6.6Z"/>
    <path class="cls-5" d="M783.19,666.99h-40.33c-3.65,0-6.6-2.96-6.6-6.6v-311.65l17.33-55.46h27.44l8.76,55.46v311.65c0,3.65-2.96,6.6-6.6,6.6Z"/>
    <path class="cls-5" d="M820.86,308.08l-27.08,2.71H20.86c-4.69,0-8.48-3.8-8.48-8.48v-49.23c0-4.69,3.8-8.48,8.48-8.48h221.28l188.29,33.1,172.27-33.1h190.96l28.16,2.38c4.69,0,8.48,3.8,8.48,8.48l-.95,44.14c0,4.69-3.8,8.48-8.48,8.48Z"/>
    <path class="cls-2" d="M583.38,252.59l-157.38,159.5c-2.58,2.58-6.76,2.58-9.33,0l-24.78-17.75-149.75-149.75h299.5l41.74,8Z"/>
    <path class="cls-3" d="M541.64,244.59l-149.75,149.75,25.86,25.86c2.58,2.58,6.76,2.58,9.33,0l175.61-175.61h-61.06Z"/>
  </g>
  <path d="M824.01,232.74h-54.98v-28.87c13.91-1.58,24.75-13.4,24.75-27.72v-18.98h3.97c6.84,0,12.38-5.54,12.38-12.38s-5.54-12.38-12.38-12.38h-29.52c-6.07-49.01-47.5-86.43-97.63-86.83v-16.79c0-15.88-12.92-28.79-28.79-28.79h-33.26c-15.88,0-28.79,12.92-28.79,28.79v16.79c-50.24.39-91.58,37.77-97.64,86.83h-29.51c-6.84,0-12.38,5.54-12.38,12.38s5.54,12.38,12.38,12.38h3.97v18.98c0,14.32,10.85,26.15,24.76,27.72v28.87h-117.83v-28.87c13.91-1.58,24.76-13.4,24.76-27.72v-18.98h3.97c6.84,0,12.38-5.54,12.38-12.38s-5.54-12.38-12.38-12.38h-29.53c-6.07-49.02-47.49-86.44-97.63-86.83v-16.79C265.08,12.92,252.16,0,236.28,0h-33.26C187.15,0,174.24,12.92,174.24,28.79v16.78c-11.73.09-23.21,2.21-34.14,6.32-6.4,2.41-9.63,9.54-7.23,15.94,2.41,6.4,9.54,9.63,15.94,7.23,8.38-3.15,17.21-4.75,26.23-4.75h89.24c36.84,0,67.54,26.65,73.43,62.1H101.6c1.51-8.96,4.65-17.64,9.27-25.45,3.48-5.88,1.54-13.47-4.34-16.95-5.88-3.48-13.47-1.54-16.95,4.34-6.88,11.62-11.29,24.66-12.97,38.06h-29.52c-6.84,0-12.38,5.54-12.38,12.38s5.54,12.38,12.38,12.38h3.97v18.98c0,14.32,10.85,26.15,24.75,27.72v28.87H20.82c-11.48,0-20.82,9.34-20.82,20.83v48.78c0,11.48,9.34,20.82,20.82,20.82h21.85v343.82c0,6.83,5.54,12.38,12.38,12.38h53.53c6.84,0,12.38-5.54,12.38-12.38v-88.59h254.36c6.84,0,12.38-5.54,12.38-12.38s-5.54-12.38-12.38-12.38H120.95v-40.91h602.93v40.91h-290.83c-6.84,0-12.38,5.54-12.38,12.38s5.54,12.38,12.38,12.38h290.83v88.59c0,6.83,5.54,12.38,12.38,12.38h53.53c6.84,0,12.38-5.54,12.38-12.38v-343.83h21.85c11.48,0,20.82-9.34,20.82-20.82v-48.78c0-11.48-9.34-20.82-20.82-20.82h0ZM203.03,24.75h33.26c2.23,0,4.04,1.81,4.04,4.04v16.77h-41.34v-16.77c0-2.23,1.81-4.04,4.04-4.04ZM608.55,24.75h33.26c2.23,0,4.04,1.81,4.04,4.04v16.77h-41.34v-16.77c0-2.23,1.81-4.04,4.04-4.04ZM580.55,70.32h89.25c36.84,0,67.54,26.65,73.43,62.1h-236.12c5.88-35.48,36.51-62.1,73.43-62.1ZM481.33,157.17h287.7v18.98c0,1.75-1.42,3.16-3.16,3.16h-281.37c-1.75,0-3.16-1.42-3.16-3.16v-18.98ZM506.08,204.06h238.19v28.68h-238.19v-28.68ZM422.42,408.68l-151.18-151.18h302.37l-151.18,151.18ZM75.8,157.17h287.7v18.98c0,1.75-1.42,3.16-3.16,3.16H78.97c-1.75,0-3.16-1.42-3.16-3.16v-18.98ZM100.56,204.06h238.19v28.68H100.56v-28.68ZM24.75,257.49h211.48l40.92,40.92H24.75v-40.92ZM178.88,414.11l-5.63-9.2h137.75l-5.63,9.2c-7.54,12.31-21.19,19.96-35.62,19.96h-55.24c-14.43,0-28.08-7.65-35.62-19.96ZM178.88,468.03l-5.63-9.2h137.75l-5.63,9.2c-7.54,12.31-21.19,19.96-35.62,19.96h-55.24c-14.43,0-28.08-7.65-35.62-19.96ZM539.47,414.11l-5.63-9.2h137.75l-5.63,9.2c-7.54,12.31-21.19,19.96-35.62,19.96h-55.24c-14.43,0-28.08-7.65-35.62-19.96h0ZM539.47,468.03l-5.63-9.2h137.75l-5.63,9.2c-7.54,12.31-21.19,19.96-35.62,19.96h-55.24c-14.43,0-28.08-7.65-35.62-19.96h0ZM777.41,654.62h-28.78v-331.45h28.78v331.45ZM820.08,298.42h-145.11c-6.84,0-12.38,5.54-12.38,12.38s5.54,12.38,12.38,12.38h48.91v164.82h-41.8c1.8-2.22,3.47-4.57,4.97-7.03l8.93-14.58c4-6.54,4.16-14.76.41-21.45-3.11-5.54-8.51-9.34-14.63-10.48,1.92-2.33,3.7-4.8,5.29-7.4l8.93-14.58c4-6.54,4.16-14.76.41-21.45-3.75-6.69-10.84-10.85-18.51-10.85h-150.37c-7.67,0-14.76,4.16-18.51,10.85s-3.59,14.91.41,21.45l8.93,14.58c1.6,2.61,3.37,5.07,5.29,7.4-6.12,1.14-11.53,4.94-14.64,10.48-3.75,6.69-3.59,14.91.41,21.45l8.93,14.58c1.51,2.47,3.17,4.81,4.97,7.03h-201.84c1.8-2.22,3.47-4.57,4.97-7.03l8.93-14.58c4-6.54,4.16-14.76.41-21.45-3.11-5.54-8.51-9.34-14.63-10.48,1.92-2.33,3.7-4.8,5.29-7.4l8.93-14.58c4-6.54,4.16-14.76.41-21.45-3.75-6.69-10.84-10.85-18.51-10.85h-150.37c-7.67,0-14.76,4.16-18.51,10.85s-3.59,14.91.41,21.45l8.93,14.58c1.6,2.61,3.37,5.07,5.29,7.4-6.12,1.14-11.53,4.94-14.64,10.48-3.75,6.69-3.59,14.91.41,21.45l8.93,14.58c1.51,2.47,3.17,4.81,4.97,7.03h-41.79v-49.22c0-6.83-5.54-12.38-12.38-12.38s-12.38,5.54-12.38,12.38v215.84h-28.78v-331.45h28.78v57.85c0,6.83,5.54,12.38,12.38,12.38s12.38-5.54,12.38-12.38v-57.85h180.95l111.76,111.76c2.32,2.32,5.47,3.63,8.75,3.63s6.43-1.3,8.75-3.63l111.78-111.78c.1,0,.19.01.29.01h73.99c6.84,0,12.38-5.54,12.38-12.38s-5.54-12.38-12.38-12.38h-49.54l40.92-40.92h211.48v40.92Z"/>
</svg>

<svg id="Layer_1" data-name="Layer 1" xmlns="http://www.w3.org/2000/svg" viewBox="0 0 844.83 679.37"><defs><style>.cls-1{fill:#e95428;}.cls-2{fill:#deecf1;}.cls-3{fill:#cbe5e8;}.cls-4{fill:#eef5f6;}</style></defs><path class="cls-1" d="M362.22,185.12l-40.35,4.32H75.19a16,16,0,0,1-16-16V141.56H380.07L377.56,169c0,8.81-6.53,16.14-15.34,16.14h0Z"/><path class="cls-1" d="M767.74,185.12l-40.35,4.32H480.72a16,16,0,0,1-16-16V141.56H785.6L783.09,169c0,8.81-6.53,16.14-15.34,16.14h0Z"/><path class="cls-2" d="M269.38,443.46,235.5,456.31l-21-9.87a54.13,54.13,0,0,1-46.17-25.87L159.39,406a8.84,8.84,0,0,1,7.54-13.46h104.9l43.46,2c6.91,0,8.38,6.64,4.77,12.53L310,420.3c-9.84,16.07-21.75,23.16-40.6,23.16Z"/><path class="cls-3" d="M317.3,392.53H267.79A8.84,8.84,0,0,1,275.33,406l-8.93,14.58a54.14,54.14,0,0,1-46.17,25.87l26.62,4.6,22.88-4.6a54.13,54.13,0,0,0,46.17-25.87L324.83,406a8.85,8.85,0,0,0-7.54-13.46Z"/><path class="cls-4" d="M269.38,497.38l-41.15,8.71-13.74-5.73a54.13,54.13,0,0,1-46.17-25.87l-8.93-14.58a8.84,8.84,0,0,1,7.54-13.46h104.9l43.46,2c6.91,0,8.38,6.64,4.77,12.53L310,474.22c-9.84,16.07-21.75,23.16-40.6,23.16Z"/><path class="cls-2" d="M317.3,446.45H267.79a8.84,8.84,0,0,1,7.54,13.46l-8.93,14.58a54.14,54.14,0,0,1-46.17,25.87l26.26,4.19,23.25-4.19a54.13,54.13,0,0,0,46.17-25.87l8.93-14.58a8.84,8.84,0,0,0-7.54-13.46Z"/><path class="cls-2" d="M630,443.46l-33.88,12.85-21-9.87a54.13,54.13,0,0,1-46.17-25.87L520,406a8.84,8.84,0,0,1,7.54-13.46h104.9l43.46,2c6.91,0,8.38,6.64,4.77,12.53L670.56,420.3c-9.84,16.07-21.76,23.16-40.6,23.16Z"/><path class="cls-3" d="M677.88,392.53H628.37A8.84,8.84,0,0,1,635.91,406L627,420.57a54.14,54.14,0,0,1-46.17,25.87l26.62,4.6,22.88-4.6a54.13,54.13,0,0,0,46.17-25.87L685.41,406a8.85,8.85,0,0,0-7.54-13.46Z"/><path class="cls-4" d="M630,497.38l-36.41,13-18.48-10a54.13,54.13,0,0,1-46.17-25.87L520,459.91a8.84,8.84,0,0,1,7.54-13.46h104.9l43.46,2c6.91,0,8.38,6.64,4.77,12.53l-10.08,13.22c-9.84,16.07-21.76,23.16-40.6,23.16Z"/><path class="cls-2" d="M677.88,446.45H628.37a8.84,8.84,0,0,1,7.54,13.46L627,474.49a54.14,54.14,0,0,1-46.17,25.87l26.37,11.27,23.14-11.27a54.13,54.13,0,0,0,46.17-25.87l8.93-14.58A8.84,8.84,0,0,0,677.88,446.45Z"/><path class="cls-1" d="M102,667H61.64a6.61,6.61,0,0,1-6.6-6.6V348.74l10.25-55.46H98l10.58,55.46V660.39A6.6,6.6,0,0,1,102,667Z"/><path class="cls-1" d="M783.19,667H742.86a6.6,6.6,0,0,1-6.6-6.6V348.74l17.33-55.46H781l8.76,55.46V660.39a6.6,6.6,0,0,1-6.6,6.6Z"/><path class="cls-1" d="M820.86,308.08l-27.08,2.71H20.86a8.48,8.48,0,0,1-8.48-8.48V253.08a8.48,8.48,0,0,1,8.48-8.48H242.14l188.29,33.1L602.7,244.6h191L821.82,247a8.48,8.48,0,0,1,8.48,8.48l-.95,44.14a8.48,8.48,0,0,1-8.48,8.48Z"/><path class="cls-4" d="M583.38,252.59,426,412.09a6.59,6.59,0,0,1-9.33,0l-24.78-17.75L242.14,244.59h299.5Z"/><path class="cls-2" d="M541.64,244.59,391.89,394.34l25.86,25.86a6.59,6.59,0,0,0,9.33,0L602.69,244.59H541.64Z"/><path d="M824,232.74H769V203.87a27.94,27.94,0,0,0,24.75-27.72v-19h4a12.38,12.38,0,0,0,0-24.76H768.23A99,99,0,0,0,670.6,45.58V28.79A28.82,28.82,0,0,0,641.81,0H608.55a28.82,28.82,0,0,0-28.79,28.79V45.58a98.91,98.91,0,0,0-97.64,86.83H452.61a12.38,12.38,0,0,0,0,24.76h4v19a27.94,27.94,0,0,0,24.76,27.72v28.87H363.51V203.87a28,28,0,0,0,24.76-27.72v-19h4a12.38,12.38,0,0,0,0-24.76H362.71a99,99,0,0,0-97.63-86.83V28.79A28.83,28.83,0,0,0,236.28,0H203a28.82,28.82,0,0,0-28.78,28.79V45.57a98.81,98.81,0,0,0-34.14,6.32,12.38,12.38,0,0,0,8.71,23.17A74.31,74.31,0,0,1,175,70.31h89.24a74.34,74.34,0,0,1,73.43,62.1H101.6A74.37,74.37,0,0,1,110.87,107,12.37,12.37,0,1,0,89.58,94.35a99.09,99.09,0,0,0-13,38.06H47.09a12.38,12.38,0,0,0,0,24.76h4v19a27.94,27.94,0,0,0,24.75,27.72v28.87h-55A20.85,20.85,0,0,0,0,253.57v48.78a20.84,20.84,0,0,0,20.82,20.82H42.67V667a12.38,12.38,0,0,0,12.38,12.38h53.53A12.38,12.38,0,0,0,121,667V578.4H375.32a12.38,12.38,0,0,0,0-24.76H121V512.73H723.88v40.91H433.05a12.38,12.38,0,0,0,0,24.76H723.88V667a12.38,12.38,0,0,0,12.38,12.38h53.53A12.38,12.38,0,0,0,802.17,667V323.16H824a20.84,20.84,0,0,0,20.82-20.82V253.56A20.84,20.84,0,0,0,824,232.74h0Zm-621-208h33.26a4,4,0,0,1,4,4V45.56H199V28.79a4,4,0,0,1,4-4Zm405.52,0h33.26a4,4,0,0,1,4,4V45.56H604.51V28.79a4,4,0,0,1,4-4Zm-28,45.57H669.8a74.34,74.34,0,0,1,73.43,62.1H507.11a74.24,74.24,0,0,1,73.43-62.1Zm-99.22,86.85H769v19a3.16,3.16,0,0,1-3.16,3.16H484.5a3.16,3.16,0,0,1-3.16-3.16v-19Zm24.75,46.89H744.27v28.68H506.08V204.06ZM422.42,408.68,271.24,257.5H573.61L422.43,408.68ZM75.8,157.17H363.5v19a3.16,3.16,0,0,1-3.16,3.16H79a3.16,3.16,0,0,1-3.16-3.16v-19Zm24.76,46.89H338.75v28.68H100.56ZM24.75,257.49H236.23l40.92,40.92H24.75ZM178.88,414.11l-5.63-9.2H311l-5.63,9.2a42,42,0,0,1-35.62,20H214.51a42,42,0,0,1-35.62-20Zm0,53.92-5.63-9.2H311l-5.63,9.2a42,42,0,0,1-35.62,20H214.51a42,42,0,0,1-35.62-20Zm360.59-53.92-5.63-9.2H671.59l-5.63,9.2a42,42,0,0,1-35.62,20H575.1a42,42,0,0,1-35.62-20h0Zm0,53.92-5.63-9.2H671.59L666,468a42,42,0,0,1-35.62,20H575.1a42,42,0,0,1-35.62-20h0ZM777.41,654.62H748.63V323.17h28.78Zm42.67-356.2H675a12.38,12.38,0,0,0,0,24.76h48.91V488h-41.8a64.5,64.5,0,0,0,5-7L696,466.39a21.21,21.21,0,0,0-14.22-31.93,64.9,64.9,0,0,0,5.29-7.4L696,412.48a21.22,21.22,0,0,0-18.1-32.3H527.51a21.22,21.22,0,0,0-18.1,32.3l8.93,14.58a65.26,65.26,0,0,0,5.29,7.4,21.21,21.21,0,0,0-14.23,31.93L518.33,481a64.9,64.9,0,0,0,5,7H321.46a64.5,64.5,0,0,0,5-7l8.93-14.58a21.21,21.21,0,0,0-14.22-31.93,64.9,64.9,0,0,0,5.29-7.4l8.93-14.58a21.22,21.22,0,0,0-18.1-32.3H166.89a21.22,21.22,0,0,0-18.1,32.3l8.93,14.58a65.26,65.26,0,0,0,5.29,7.4,21.21,21.21,0,0,0-14.23,31.93L157.71,481a64.9,64.9,0,0,0,5,7H120.89V438.78a12.38,12.38,0,1,0-24.76,0V654.62H67.35V323.17H96.13V381a12.38,12.38,0,1,0,24.76,0V323.17h181L413.6,434.93a12.36,12.36,0,0,0,17.5,0L542.88,323.15h74.28a12.38,12.38,0,0,0,0-24.76H567.62l40.92-40.92H820V298.4Z"/></svg>
